X:6
T: Die schoene Magdalena
N: Q0125A
O: Mitteleuropa, Deutschland / Frankreich, Lothringen
N: Schlusspause ergaenzt.
N: Vierte Zeile = refrainartig, auf Wortwiederholungen.
R: Ballade, verbotene Liebe, Flucht
M: 6/8
L: 1/16
K: G
D4 | G3A_BBA2G2FF | G3A_BGA4
dd | d2d2d2d2_B2c2 | d6z4
_Bc | d2d2ddc2c2dc | _Bcd2z6
cB | A_Bc2z6BA | G3A_BGA4
GA | _B2d2ccd2B2A2 | G4z4

@@@ Tune index: 1504
